packages/ffe-icons/icons/open/400/sm/more_down.svg

<svg xmlns="http://www.w3.org/2000/svg" height="20" viewBox="0 -960 960 960" width="20"><path d="M288-288h300q15.3 0 25.65 10.289 10.35 10.29 10.35 25.5Q624-237 613.65-226.5 603.3-216 588-216H252q-15.3 0-25.65-10.35Q216-236.7 216-252v-336q0-15.3 10.289-25.65 10.29-10.35 25.5-10.35Q267-624 277.5-613.65 288-603.3 288-588v300Zm192-192h300q15.3 0 25.65 10.289 10.35 10.29 10.35 25.5Q816-429 805.65-418.5 795.3-408 780-408H444q-15.3 0-25.65-10.35Q408-428.7 408-444v-336q0-15.3 10.289-25.65 10.29-10.35 25.5-10.35Q459-816 469.5-805.65 480-795.3 480-780v300Z"/></svg>

<svg xmlns="http://www.w3.org/2000/svg" height="20" viewBox="0 -960 960 960" width="20"><path d="M288-288h300q15.3 0 25.65 10.29Q624-267.42 624-252.21t-10.35 25.71Q603.3-216 588-216H252q-15.3 0-25.65-10.35Q216-236.7 216-252v-336q0-15.3 10.29-25.65Q236.58-624 251.79-624t25.71 10.35Q288-603.3 288-588v300Zm192-192h300q15.3 0 25.65 10.29Q816-459.42 816-444.21t-10.35 25.71Q795.3-408 780-408H444q-15.3 0-25.65-10.35Q408-428.7 408-444v-336q0-15.3 10.29-25.65Q428.58-816 443.79-816t25.71 10.35Q480-795.3 480-780v300Z"/></svg>
